X:1
T:Rejoice, Rejoice, the Lost Is Found
T:Rejoice, Rejoice, the Lost Is Found
T:Frank Leslie Bristow
T:Frank Leslie Bristow, 1889
T:Public Domain Courtesy of the Cyber Hymnal™
T:Public Domain Courtesy of the Cyber Hymnal™
C:Frank Leslie Bristow
Z:Public Domain
Z:Courtesy of the Cyber Hymnal™
%%score ( 1 2 ) ( 3 4 )
L:1/8
Q:1/4=100
M:4/4
K:F
V:1 treble 
V:2 treble 
V:3 bass 
V:4 bass 
V:1
 (3CDE | F2 z G F2 z G | A2 c2 B2 GE | F3 G A2 c2 | G6 c2 | f3 c e3 c | d2 c2 D2 G2 | F3 F G3 ^G | %8
w: 1.~Joy- ful- ly|march a- long, and|shout the song To the|earth’s re- mot- est|bound, “Sal-|va- tion’s come, the|wan- derer’s home. The|lost one now is|
w: 2.~Wan- der- er|far a- way from|love to- day, In the|sea of sin so|low, A|call from home now|bids you “come,” A-|rise and say, “I’ll|
w: 3.~Joy- ful- ly|an- gels bring the|sig- net ring, Of a|Fa- ther’s par- doning|grace, And|roy- al fare, they|now pre- pare, Be-|fore His smil- ing|
w: 4.~Heav- en- ly|home! sweet home! How|sweet to roam Thro’ thy|realm of beau- ty|rare, With|an- gel throng, join|in a song Of|joy be- yond com-|
 A6 c2 | f3 c e3 c | d2 c2 D2 G2 | F3 C A3 G | F6 ||"^Refrain" C2 | [GB]2 z [FA] [EG]2 z [DF] | %15
w: found.” Re-|joice! Re- joice! with|heart and voice; Re-|peat the wel- come|sound!|||
w: go.” Your|va- cant chair is|wait- ing there, And|rai- ment white as|snow!|||
w: face, A-|way with fears! a-|way with tears! Re-|ceive His fond em-|brace!|With|songs of joy, your|
w: pare. “Re-|deem- er! King!” for-|ev- er sing The|loved ones ga- thered|there!|||
 (EF) (DE) C2 [CD][CE] | [CF]3 [CG] [FA]3 [Fc] [EG]6 [EBc]2 | [FAf]3 [Ac] [Be]3 [Ec] | %18
w: |||
w: |||
w: tongues * em- * ploy, And re-|peat the wel- come sound, “Sal-|va- tion’s come! The|
w: |||
 [Fd]2 [Fc]2 D2 [DG]2 | [CF]3 C [FA]3 [EG] | !fermata!F6 |] %21
w: |||
w: |||
w: wan- derer’s home, The|lost one now is|found!”|
w: |||
V:2
 x2 | x8 | x8 | x8 | x8 | x8 | x8 | x8 | x8 | x8 | x8 | x8 | x6 || C2 | x8 | C2 =B,2 C2 x2 | x16 | %17
 x8 | x4 D2 x2 | x3 C x4 | F6 |] %21
V:3
 z2 | [F,,F,]2 [A,CF]2 [F,,F,]2 [A,CF]2 | [F,,F,]2 [A,CF]2 [C,,C,]2 [B,CE]2 | %3
 [F,,F,]2 [A,C]2 [F,,F,]2 [A,CF]2 | (C,2 [B,CE]2 [B,CE]2)!>(! C2!>)! | %5
 [F,,F,]2 [A,CF]2 [G,,G,]2 [B,CE]2 | [A,,A,]2 [A,CF]2 [B,,B,]2 [G,B,D]2 | C,2 [A,CF]2 C,2 [B,CE]2 | %8
 ([F,,F,]2 [A,CF]2 [A,CF]2)!>(! [F,A,C]2!>)! | [F,,F,]2 [A,CF]2 [G,,G,]2 [B,CE]2 | %10
 [A,,A,]2 [A,CF]2 [B,,B,]2 [G,B,D]2 | C,2 [C,A,CF]2 C,2 [B,CE]2 | ([F,,F,]2 (3F,C,A,, [F,,F,]2) || %13
 [C,C]2 | [C,C]2 z [C,C] [C,C]2 z [F,A,] | G,2 G,2 C2 [A,C][G,B,] | %16
 [F,A,]3 [F,B,] [F,C]3 [C,C] [C,C]6 [C,C]2 | [F,C]3 [F,C] [G,C]3 [G,C] | %18
 [A,C]2 [A,C]2 B,2 [B,,B,]2 | [C,A,]3 [C,A,] [C,C]3 [C,B,] | !fermata![F,A,]6 |] %21
V:4
 x2 | x8 | x8 | x8 | x8 | x8 | x8 | x8 | x8 | x8 | x8 | x8 | x6 || x2 | x8 | G,2 G,2 (C_B,) x2 | %16
 x16 | x8 | x4 B,2 x2 | x8 | x6 |] %21

